X: 4
T:Cooley's
M:C|
L:1/8
R:reel
K:Edor
EBBA B2EB|~B2AB dBAG|(3FED AD BDAD|(3FED AD BAGF|
EBBA B2EB|~B2AB defg|afec dBAF|1 DEFD E2ED:|2 DEFD E2gf||
|:eB~B2 eBgf|eB~B2 gedB|A2FA DAFB|~A2FA defg|
eB~B2 eBgf|eB~B2 defg|afec dBAF|1 DEFD E2gf:|2 DEFD E2ED||

